X: 17239
T: Herb Reid's
R: polka
M: 2/4
K: Dmajor
|:df f>e|d/e/d/c/ c/B/A|Be ed|cB c/B/A|
df- fe|d>c BA|B/c/e Bc|d2 D2:|
|:D>F AF|EF GB|AA/B/ cd|e/f/e/d/ c/B/A|
DF/G/ AF|E>F GB|A>B ce|d2 D2:|

